styles/4/Numix/22/places/default-folder-documents.svg

<?xml version="1.0" encoding="UTF-8" standalone="no"?>
<!-- Created with Inkscape (http://www.inkscape.org/) -->

<svg
   xmlns:dc="http://purl.org/dc/elements/1.1/"
   xmlns:cc="http://creativecommons.org/ns#"
   xmlns:rdf="http://www.w3.org/1999/02/22-rdf-syntax-ns#"
   xmlns:svg="http://www.w3.org/2000/svg"
   xmlns="http://www.w3.org/2000/svg"
   xmlns:sodipodi="http://sodipodi.sourceforge.net/DTD/sodipodi-0.dtd"
   xmlns:inkscape="http://www.inkscape.org/namespaces/inkscape"
   width="22"
   height="22"
   id="svg2"
   version="1.1"
   inkscape:version="0.91 r"
   sodipodi:docname="default-folder-documents.svg"
   inkscape:export-filename="/media/Data/Main/Visuals/Icons/Numix/Desktop/repos/numix-wiki/Gjorgi/Numix-folders/48/New/folder-144.png"
   inkscape:export-xdpi="270"
   inkscape:export-ydpi="270">
  <defs
     id="defs4" />
  <sodipodi:namedview
     id="base"
     pagecolor="#ffffff"
     bordercolor="#666666"
     borderopacity="1.0"
     inkscape:pageopacity="0.0"
     inkscape:pageshadow="2"
     inkscape:zoom="19.696326"
     inkscape:cx="0.98707718"
     inkscape:cy="14.18178"
     inkscape:document-units="px"
     inkscape:current-layer="layer1"
     showgrid="true"
     inkscape:window-width="1280"
     inkscape:window-height="998"
     inkscape:window-x="0"
     inkscape:window-y="0"
     inkscape:window-maximized="1"
     showguides="true"
     inkscape:guide-bbox="true">
    <inkscape:grid
       type="xygrid"
       id="grid2985"
       empspacing="5"
       visible="true"
       enabled="true"
       snapvisiblegridlinesonly="true" />
  </sodipodi:namedview>
  <metadata
     id="metadata7">
    <rdf:RDF>
      <cc:Work
         rdf:about="">
        <dc:format>image/svg+xml</dc:format>
        <dc:type
           rdf:resource="http://purl.org/dc/dcmitype/StillImage" />
        <dc:title />
      </cc:Work>
    </rdf:RDF>
  </metadata>
  <g
     inkscape:label="Layer 1"
     inkscape:groupmode="layer"
     id="layer1"
     transform="translate(0,-1030.3622)">
    <path
       inkscape:connector-curvature="0"
       id="path2998"
       d="m 2,1032.3622 17,0 c 1,0 2,1 2,2 l 0,4 c 0,1.108 -0.446,2 -1,2 l -18,0 c -0.554,0 -1,-0.892 -1,-2 l 0,-6 z"
       style="fill:#e9a439;fill-opacity:1;stroke:none"
       sodipodi:nodetypes="csssssscc" />
    <path
       style="opacity:0.02999998;fill:#000000;fill-opacity:1;stroke:none"
       d="m 1,1034.3622 0,5 20,0 0,-5 z"
       id="path3807"
       inkscape:connector-curvature="0" />
    <rect
       style="fill:#f5c14e;fill-opacity:1;stroke:none"
       id="rect2990"
       width="22"
       height="17"
       x="0"
       y="1035.3622"
       rx="2"
       ry="2" />
    <path
       sodipodi:nodetypes="csssscc"
       inkscape:connector-curvature="0"
       id="path3000"
       d="m 1,1033.3622 0,-1 c 0,-1 0,-2 1,-2 l 4,0 c 1,0 1,1 1,2 l 0,1 z"
       style="fill:#e9a439;fill-opacity:1;stroke:none" />
    <path
       style="opacity:0.05;fill:#000000;fill-opacity:1;stroke:none"
       d="m 7,1032.3622 0,1 1,0 11,0 c 1,0 2,1 2,2 l 0,-1 c 0,-1 -1,-2 -2,-2 l -11,0 z"
       id="path3002"
       inkscape:connector-curvature="0"
       sodipodi:nodetypes="cccscsscc" />
    <path
       style="opacity:0.05;fill:#000000;fill-opacity:1;stroke:none"
       d="m 2,1030.3622 c -1,0 -1,1 -1,2 l 0,0.25 c 0.046875,-0.7031 0.25,-1.25 1,-1.25 l 4,0 c 0.75,0 0.953125,0.5469 1,1.25 l 0,-0.25 c 0,-1 0,-2 -1,-2 l -4,0 z"
       id="path3780"
       inkscape:connector-curvature="0" />
    <path
       style="opacity:0.1;fill:#ffffff;fill-opacity:1;stroke:none"
       d="m 2,1035.3622 c -0.7419013,0 -1.3734731,0.4031 -1.71875,1 l 21.4375,0 c -0.345277,-0.5969 -0.976849,-1 -1.71875,-1 l -18,0 z"
       id="rect2991"
       inkscape:connector-curvature="0" />
    <path
       style="opacity:1.0;fill:#c79d41;fill-opacity:1;stroke:none"
       d="M 8 9 C 7.446 9 7 9.446 7 10 L 7 18 C 7 18.554 7.446 19 8 19 L 14 19 C 14.554 19 15 18.554 15 18 L 15 10 C 15 9.446 14.554 9 14 9 L 8 9 z M 9 10 L 13 10 L 13 11 L 14 11 L 14 17 C 14 17.554 13.554 18 13 18 L 9 18 C 8.446 18 8 17.554 8 17 L 8 11 C 8 10.446 8.446 10 9 10 z M 9.25 12 C 9.1115 12 9 12.1115 9 12.25 L 9 12.75 C 9 12.8885 9.1115 13 9.25 13 L 12.75 13 C 12.8885 13 13 12.8885 13 12.75 L 13 12.25 C 13 12.1115 12.8885 12 12.75 12 L 9.25 12 z M 9.25 14 C 9.1115 14 9 14.1115 9 14.25 L 9 14.75 C 9 14.8885 9.1115 15 9.25 15 L 12.75 15 C 12.8885 15 13 14.8885 13 14.75 L 13 14.25 C 13 14.1115 12.8885 14 12.75 14 L 9.25 14 z M 9.25 16 C 9.1115 16 9 16.1115 9 16.25 L 9 16.75 C 9 16.8885 9.1115 17 9.25 17 L 12.75 17 C 12.8885 17 13 16.8885 13 16.75 L 13 16.25 C 13 16.1115 12.8885 16 12.75 16 L 9.25 16 z "
       transform="translate(0,1030.3622)"
       id="rect3767-9" />
  </g>
</svg>

<!-- Created with Inkscape (http://www.inkscape.org/) -->
<svg xmlns="http://www.w3.org/2000/svg" viewBox="0 0 22 22">
 <g transform="translate(0,-1030.3622)">
  <path d="m 2 1032.36 17 0 c 1 0 2 1 2 2 l 0 4 c 0 1.108 -0.446 2 -1 2 l -18 0 c -0.554 0 -1 -0.892 -1 -2 l 0 -6 z" style="fill:#e9a439;fill-opacity:1;stroke:none"/>
  <path d="m 1 1034.36 0 5 20 0 0 -5 z" style="fill:#000;opacity:0.03;fill-opacity:1;stroke:none"/>
  <rect width="22" height="17" y="1035.36" rx="2" style="fill:#f5c14e;fill-opacity:1;stroke:none"/>
  <path d="m 1 1033.36 0 -1 c 0 -1 0 -2 1 -2 l 4 0 c 1 0 1 1 1 2 l 0 1 z" style="fill:#e9a439;fill-opacity:1;stroke:none"/>
  <path d="m 7 1032.36 0 1 1 0 11 0 c 1 0 2 1 2 2 l 0 -1 c 0 -1 -1 -2 -2 -2 l -11 0 z" style="fill:#000;opacity:0.05;fill-opacity:1;stroke:none"/>
  <path d="m 2 1030.36 c -1 0 -1 1 -1 2 l 0 0.25 c 0.047 -0.703 0.25 -1.25 1 -1.25 l 4 0 c 0.75 0 0.953 0.547 1 1.25 l 0 -0.25 c 0 -1 0 -2 -1 -2 l -4 0 z" style="fill:#000;opacity:0.05;fill-opacity:1;stroke:none"/>
  <path d="m 2 1035.36 c -0.742 0 -1.373 0.403 -1.719 1 l 21.438 0 c -0.345 -0.597 -0.977 -1 -1.719 -1 l -18 0 z" style="fill:#fff;opacity:0.1;fill-opacity:1;stroke:none"/>
  <path d="m 8 9 c -0.554 0 -1 0.446 -1 1 l 0 8 c 0 0.554 0.446 1 1 1 l 6 0 c 0.554 0 1 -0.446 1 -1 l 0 -8 c 0 -0.554 -0.446 -1 -1 -1 l -6 0 z m 1 1 l 4 0 l 0 1 l 1 0 l 0 6 c 0 0.554 -0.446 1 -1 1 l -4 0 c -0.554 0 -1 -0.446 -1 -1 l 0 -6 c 0 -0.554 0.446 -1 1 -1 z m 0.25 2 c -0.139 0 -0.25 0.111 -0.25 0.25 l 0 0.5 c 0 0.139 0.111 0.25 0.25 0.25 l 3.5 0 c 0.139 0 0.25 -0.111 0.25 -0.25 l 0 -0.5 c 0 -0.139 -0.111 -0.25 -0.25 -0.25 l -3.5 0 z m 0 2 c -0.139 0 -0.25 0.111 -0.25 0.25 l 0 0.5 c 0 0.139 0.111 0.25 0.25 0.25 l 3.5 0 c 0.139 0 0.25 -0.111 0.25 -0.25 l 0 -0.5 c 0 -0.139 -0.111 -0.25 -0.25 -0.25 l -3.5 0 z m 0 2 c -0.139 0 -0.25 0.111 -0.25 0.25 l 0 0.5 c 0 0.139 0.111 0.25 0.25 0.25 l 3.5 0 c 0.139 0 0.25 -0.111 0.25 -0.25 l 0 -0.5 c 0 -0.139 -0.111 -0.25 -0.25 -0.25 l -3.5 0 z" transform="translate(0,1030.3622)" style="fill:#c79d41;opacity:1;fill-opacity:1;stroke:none"/>
 </g>
</svg>
